X:105
T:Belle of the Mohawk Vale
T:From KG, Then and Now (2006 Stand piece)
S:CFD Vol. 1
M:4/4
L:1/8
K:G
%%MIDI channel 1
%%MIDI program 72
%%MIDI transpose 8
%%MIDI grace 1/8
%%MIDI ratio 3 1
(B>c)|(d2 B)d g2 f>e|(de) GA B2 B>c|d2 ed G2 (FG)|
w:O,_ sweet is the vale where the Mo-hawk gent-ly glides On its clear win-ding way to the 
A4-Az (B>c)|(d2 B)d g2 f>e|(de) GA B2 B>c|d2 c>B LAd-d2|
w:sea,_ And_ dear-er than all stor-ied streams on earth be-side Is this bright roll-ing ri-ver to 
G6 d2|(ec-c2) g2 (fe)|(ed) dB d3d|d2 (cB) (c<A) Ld2|
w:me; But sweet-er,_ dear-er, yes, dear-er far than these, Who charms where_ o-thers all 
B4-Bz Bc|(d<Lg-g2) (e<Lg-g2)|.d.g LG>A B2 Le2|Ld2 .c.B LALd-d2| LG4-Gz z||
w:fail,_ Is my blue -eyed, Bonn-y,_ Bonn-y E-lo-ise, The Belle of the Mo-hawk_ Vale.

